dist/img/new-client_img.svg

<svg width="1359" height="355" viewBox="0 0 1359 355" fill="none" xmlns="http://www.w3.org/2000/svg">
<path d="M1.22266 306H648.757V314.182C648.757 324.648 644.601 334.684 637.204 342.085C629.806 349.485 619.773 353.642 609.311 353.642H40.7775C30.3157 353.642 20.2824 349.485 12.8848 342.085C5.48716 334.684 1.33122 324.648 1.33122 314.182V306H1.22266Z" fill="white" stroke="#3F4749" stroke-width="1.5" stroke-linecap="round" stroke-linejoin="round"/>
<path d="M393.551 305.892H256.574V329.713H393.551V305.892Z" fill="#EDEDED" stroke="#3F4749" stroke-width="1.5" stroke-linecap="round" stroke-linejoin="round"/>
<path d="M88.186 1H561.904C569.275 1 576.344 3.92924 581.556 9.14331C586.769 14.3574 589.697 21.4292 589.697 28.803V306.001H60.3926V28.803C60.3926 21.4292 63.3208 14.3574 68.5331 9.14331C73.7453 3.92924 80.8147 1 88.186 1Z" fill="white" stroke="#3F4749" stroke-width="1.5" stroke-linecap="round" stroke-linejoin="round"/>
<path d="M562.482 28.2236H87.6064V278.668H562.482V28.2236Z" fill="#00FFCC" stroke="#3F4749" stroke-width="1.5" stroke-linecap="round" stroke-linejoin="round"/>
<path d="M562.482 28.2236H87.6064V278.668H562.482V28.2236Z" fill="#00FFCC" stroke="#3F4749" stroke-width="1.5" stroke-linecap="round" stroke-linejoin="round"/>
<path d="M427.46 70.2539H222.665C213.591 70.2539 206.235 77.6124 206.235 86.6895V222.555C206.235 231.632 213.591 238.991 222.665 238.991H427.46C436.534 238.991 443.89 231.632 443.89 222.555V86.6895C443.89 77.6124 436.534 70.2539 427.46 70.2539Z" fill="black" stroke="#3F4749" stroke-width="1.5" stroke-linecap="round" stroke-linejoin="round"/>
<path d="M427.46 69.7837H222.665C218.308 69.7837 214.129 71.5153 211.048 74.5976C207.966 77.6799 206.235 81.8603 206.235 86.2193V98.2745H443.89V86.2193C443.89 81.8603 442.159 77.6799 439.078 74.5976C435.997 71.5153 431.818 69.7837 427.46 69.7837Z" fill="#EDEDED" stroke="#3F4749" stroke-width="1.5" stroke-linecap="round" stroke-linejoin="round"/>
<path d="M314.079 188.634C312.868 188.62 311.67 188.367 310.556 187.89C309.442 187.413 308.433 186.721 307.586 185.854C306.739 184.986 306.071 183.961 305.621 182.835C305.17 181.71 304.945 180.506 304.96 179.294V167.528L295.08 162.931L304.96 158.297V146.459C304.96 144.011 305.932 141.663 307.663 139.931C309.393 138.2 311.741 137.228 314.188 137.228V137.228" stroke="white" stroke-width="1.5" stroke-linecap="round" stroke-linejoin="round"/>
<path d="M335.54 188.634C336.761 188.634 337.97 188.392 339.097 187.921C340.224 187.451 341.246 186.761 342.104 185.892C342.962 185.023 343.64 183.993 344.097 182.86C344.555 181.728 344.783 180.515 344.768 179.294V167.528L354.648 162.931L344.768 158.297V146.459C344.768 144.011 343.796 141.663 342.065 139.931C340.335 138.2 337.988 137.228 335.54 137.228V137.228" stroke="white" stroke-width="1.5" stroke-linecap="round" stroke-linejoin="round"/>
<path d="M288.964 188.634H256.285" stroke="#00FFCC" stroke-width="1.5" stroke-linecap="round" stroke-linejoin="round"/>
<path d="M360.185 188.634L393.804 136.938" stroke="#967BFF" stroke-width="1.5" stroke-linecap="round" stroke-linejoin="round"/>
<path d="M325.045 19.3903C327.683 19.3903 329.822 17.2508 329.822 14.6117C329.822 11.9725 327.683 9.83301 325.045 9.83301C322.406 9.83301 320.268 11.9725 320.268 14.6117C320.268 17.2508 322.406 19.3903 325.045 19.3903Z" fill="#3F4749" stroke="#3F4749" stroke-width="1.5" stroke-linecap="round" stroke-linejoin="round"/>
<path d="M1354.92 68.9075L1319.96 62.8394L1276.63 312.674L1311.6 318.742L1354.92 68.9075Z" fill="#967BFF" stroke="#3F4749" stroke-width="1.49195" stroke-linecap="round" stroke-linejoin="round"/>
<path d="M1318.92 78.1099L1334.77 80.9336" stroke="#3F4749" stroke-width="1.5" stroke-linecap="round" stroke-linejoin="round"/>
<path d="M1316.46 92.1562L1324.35 93.5319" stroke="#3F4749" stroke-width="1.5" stroke-linecap="round" stroke-linejoin="round"/>
<path d="M1313.96 106.167L1321.89 107.578" stroke="#3F4749" stroke-width="1.5" stroke-linecap="round" stroke-linejoin="round"/>
<path d="M1311.46 120.212L1319.39 121.588" stroke="#3F4749" stroke-width="1.5" stroke-linecap="round" stroke-linejoin="round"/>
<path d="M1309 134.223L1324.82 137.046" stroke="#3F4749" stroke-width="1.5" stroke-linecap="round" stroke-linejoin="round"/>
<path d="M1306.51 148.269L1314.4 149.645" stroke="#3F4749" stroke-width="1.5" stroke-linecap="round" stroke-linejoin="round"/>
<path d="M1304.01 162.279L1311.94 163.691" stroke="#3F4749" stroke-width="1.5" stroke-linecap="round" stroke-linejoin="round"/>
<path d="M1301.51 176.289L1309.44 177.701" stroke="#3F4749" stroke-width="1.5" stroke-linecap="round" stroke-linejoin="round"/>
<path d="M1299.05 190.335L1314.87 193.123" stroke="#3F4749" stroke-width="1.5" stroke-linecap="round" stroke-linejoin="round"/>
<path d="M1296.55 204.346L1304.44 205.758" stroke="#3F4749" stroke-width="1.5" stroke-linecap="round" stroke-linejoin="round"/>
<path d="M1294.06 218.392L1301.98 219.804" stroke="#3F4749" stroke-width="1.5" stroke-linecap="round" stroke-linejoin="round"/>
<path d="M1291.56 232.402L1299.49 233.814" stroke="#3F4749" stroke-width="1.5" stroke-linecap="round" stroke-linejoin="round"/>
<path d="M1289.1 246.448L1304.91 249.236" stroke="#3F4749" stroke-width="1.5" stroke-linecap="round" stroke-linejoin="round"/>
<path d="M1286.6 260.458L1294.53 261.87" stroke="#3F4749" stroke-width="1.5" stroke-linecap="round" stroke-linejoin="round"/>
<path d="M1284.11 274.505L1292.03 275.881" stroke="#3F4749" stroke-width="1.5" stroke-linecap="round" stroke-linejoin="round"/>
<path d="M1281.64 288.515L1289.53 289.927" stroke="#3F4749" stroke-width="1.5" stroke-linecap="round" stroke-linejoin="round"/>
<path d="M1279.15 302.561L1294.96 305.349" stroke="#3F4749" stroke-width="1.5" stroke-linecap="round" stroke-linejoin="round"/>
<path d="M1358.15 165.22L1339.1 158.523L1285.42 311.332L1304.47 318.029L1358.15 165.22Z" fill="#7FEFD2" stroke="#3F4749" stroke-width="1.5" stroke-linecap="round" stroke-linejoin="round"/>
<path d="M1339.08 158.514L1355.83 141.318L1358.11 165.212L1339.08 158.514Z" fill="white" stroke="#3F4749" stroke-width="1.5" stroke-linecap="round" stroke-linejoin="round"/>
<path d="M1349.21 148.124L1356.74 150.767L1355.83 141.318L1349.21 148.124Z" fill="#3F4749" stroke="#3F4749" stroke-width="1.5" stroke-linecap="round" stroke-linejoin="round"/>
<path d="M1294.93 314.689L1348.59 161.881" stroke="#3F4749" stroke-width="1.5" stroke-linecap="round" stroke-linejoin="round"/>
<path d="M1304.45 318.015L1285.4 311.318L1282.38 319.925L1301.43 326.622L1304.45 318.015Z" fill="#C4CBCC" stroke="#3F4749" stroke-width="1.5" stroke-linecap="round" stroke-linejoin="round"/>
<path d="M1301.46 326.637L1282.41 319.94L1276.69 336.198L1295.75 342.894L1301.46 326.637Z" fill="#EDEDED" stroke="#3F4749" stroke-width="1.5" stroke-linecap="round" stroke-linejoin="round"/>
<path d="M1275.66 319.657L1295.77 317.791L1280.82 156.516L1260.71 158.382L1275.66 319.657Z" fill="white" stroke="#3F4749" stroke-width="1.5" stroke-linecap="round" stroke-linejoin="round"/>
<path d="M1295.76 317.802L1287.72 340.429L1275.67 319.685L1295.76 317.802Z" fill="#967BFF" stroke="#3F4749" stroke-width="1.5" stroke-linecap="round" stroke-linejoin="round"/>
<path d="M1290.91 331.487L1282.98 332.211L1287.72 340.429L1290.91 331.487Z" fill="#3F4749" stroke="#3F4749" stroke-width="1.5" stroke-linecap="round" stroke-linejoin="round"/>
<path d="M1270.75 157.465L1285.73 318.744" stroke="#3F4749" stroke-width="1.5" stroke-linecap="round" stroke-linejoin="round"/>
<path d="M1260.7 158.407L1280.8 156.542L1279.96 147.458L1259.86 149.324L1260.7 158.407Z" fill="#C4CBCC" stroke="#3F4749" stroke-width="1.5" stroke-linecap="round" stroke-linejoin="round"/>
<path d="M1259.85 149.279L1279.96 147.413L1278.37 130.254L1258.26 132.12L1259.85 149.279Z" fill="#EDEDED" stroke="#3F4749" stroke-width="1.5" stroke-linecap="round" stroke-linejoin="round"/>
<path d="M1257.47 248.802H1345.01V338.582C1345.01 342.586 1343.42 346.426 1340.59 349.257C1337.76 352.088 1333.92 353.678 1329.92 353.678H1272.56C1268.56 353.678 1264.72 352.088 1261.89 349.257C1259.06 346.426 1257.47 342.586 1257.47 338.582V248.802Z" fill="black" stroke="#3F4749" stroke-width="1.5" stroke-linecap="round" stroke-linejoin="round"/>
<path d="M1350.19 228.384H1252.22V248.802H1350.19V228.384Z" fill="#00F5C9" stroke="#3F4749" stroke-width="1.5" stroke-linecap="round" stroke-linejoin="round"/>
<path d="M1268.87 249.236V289.927" stroke="#3F4749" stroke-width="1.5" stroke-linecap="round" stroke-linejoin="round"/>
<path d="M1332.74 294.344V305.349" stroke="#3F4749" stroke-width="1.5" stroke-linecap="round" stroke-linejoin="round"/>
<path d="M1332.74 314.689V325.694" stroke="#3F4749" stroke-width="1.5" stroke-linecap="round" stroke-linejoin="round"/>
</svg>

<svg width="1359" height="355" fill="none" xmlns="http://www.w3.org/2000/svg"><path d="M1.223 306h647.534v8.182a39.47 39.47 0 01-11.553 27.903 39.44 39.44 0 01-27.893 11.557H40.777a39.44 39.44 0 01-27.892-11.557A39.469 39.469 0 011.33 314.182V306h-.108z" fill="#fff" stroke="#3F4749" stroke-width="1.5" stroke-linecap="round" stroke-linejoin="round"/><path d="M393.551 305.892H256.574v23.821h136.977v-23.821z" fill="#EDEDED" stroke="#3F4749" stroke-width="1.5" stroke-linecap="round" stroke-linejoin="round"/><path d="M88.186 1h473.718a27.79 27.79 0 0119.652 8.143 27.805 27.805 0 018.141 19.66v277.198H60.393V28.803a27.808 27.808 0 018.14-19.66A27.788 27.788 0 0188.186 1z" fill="#fff" stroke="#3F4749" stroke-width="1.5" stroke-linecap="round" stroke-linejoin="round"/><path d="M562.482 28.224H87.606v250.444h474.876V28.224z" fill="#0FC" stroke="#3F4749" stroke-width="1.5" stroke-linecap="round" stroke-linejoin="round"/><path d="M562.482 28.224H87.606v250.444h474.876V28.224z" fill="#0FC" stroke="#3F4749" stroke-width="1.5" stroke-linecap="round" stroke-linejoin="round"/><path d="M427.46 70.254H222.665c-9.074 0-16.43 7.358-16.43 16.435v135.866c0 9.077 7.356 16.436 16.43 16.436H427.46c9.074 0 16.43-7.359 16.43-16.436V86.69c0-9.078-7.356-16.436-16.43-16.436z" fill="#000" stroke="#3F4749" stroke-width="1.5" stroke-linecap="round" stroke-linejoin="round"/><path d="M427.46 69.784H222.665a16.436 16.436 0 00-16.43 16.436v12.055H443.89V86.219a16.44 16.44 0 00-4.812-11.621 16.426 16.426 0 00-11.618-4.814z" fill="#EDEDED" stroke="#3F4749" stroke-width="1.5" stroke-linecap="round" stroke-linejoin="round"/><path d="M314.079 188.634a9.224 9.224 0 01-8.458-5.799 9.213 9.213 0 01-.661-3.541v-11.766l-9.88-4.597 9.88-4.634v-11.838a9.226 9.226 0 019.228-9.231v0m21.352 51.406a9.224 9.224 0 008.557-5.774 9.209 9.209 0 00.671-3.566v-11.766l9.88-4.597-9.88-4.634v-11.838a9.234 9.234 0 00-2.703-6.528 9.224 9.224 0 00-6.525-2.703v0" stroke="#fff" stroke-width="1.5" stroke-linecap="round" stroke-linejoin="round"/><path d="M288.964 188.634h-32.679" stroke="#0FC" stroke-width="1.5" stroke-linecap="round" stroke-linejoin="round"/><path d="M360.185 188.634l33.619-51.696" stroke="#967BFF" stroke-width="1.5" stroke-linecap="round" stroke-linejoin="round"/><path d="M325.045 19.39a4.778 4.778 0 004.777-4.778 4.778 4.778 0 10-4.777 4.778z" fill="#3F4749" stroke="#3F4749" stroke-width="1.5" stroke-linecap="round" stroke-linejoin="round"/><path d="M1354.92 68.907l-34.96-6.068-43.33 249.835 34.97 6.068 43.32-249.835z" fill="#967BFF" stroke="#3F4749" stroke-width="1.492" stroke-linecap="round" stroke-linejoin="round"/><path d="M1318.92 78.11l15.85 2.824m-18.31 11.222l7.89 1.376m-10.39 12.635l7.93 1.411m-10.43 12.634l7.93 1.376M1309 134.223l15.82 2.823m-18.31 11.223l7.89 1.376m-10.39 12.634l7.93 1.412m-10.43 12.598l7.93 1.412m-10.39 12.634l15.82 2.788m-18.32 11.223l7.89 1.412m-10.38 12.634l7.92 1.412m-10.42 12.598l7.93 1.412m-10.39 12.634l15.81 2.788m-18.31 11.222l7.93 1.412m-10.42 12.635l7.92 1.376m-10.39 12.634l7.89 1.412m-10.38 12.634l15.81 2.788" stroke="#3F4749" stroke-width="1.5" stroke-linecap="round" stroke-linejoin="round"/><path d="M1358.15 165.22l-19.05-6.697-53.68 152.809 19.05 6.697 53.68-152.809z" fill="#7FEFD2" stroke="#3F4749" stroke-width="1.5" stroke-linecap="round" stroke-linejoin="round"/><path d="M1339.08 158.514l16.75-17.196 2.28 23.894-19.03-6.698z" fill="#fff" stroke="#3F4749" stroke-width="1.5" stroke-linecap="round" stroke-linejoin="round"/><path d="M1349.21 148.124l7.53 2.643-.91-9.449-6.62 6.806z" fill="#3F4749" stroke="#3F4749" stroke-width="1.5" stroke-linecap="round" stroke-linejoin="round"/><path d="M1294.93 314.689l53.66-152.808" stroke="#3F4749" stroke-width="1.5" stroke-linecap="round" stroke-linejoin="round"/><path d="M1304.45 318.015l-19.05-6.697-3.02 8.607 19.05 6.697 3.02-8.607z" fill="#C4CBCC" stroke="#3F4749" stroke-width="1.5" stroke-linecap="round" stroke-linejoin="round"/><path d="M1301.46 326.637l-19.05-6.697-5.72 16.258 19.06 6.696 5.71-16.257z" fill="#EDEDED" stroke="#3F4749" stroke-width="1.5" stroke-linecap="round" stroke-linejoin="round"/><path d="M1275.66 319.657l20.11-1.866-14.95-161.275-20.11 1.866 14.95 161.275z" fill="#fff" stroke="#3F4749" stroke-width="1.5" stroke-linecap="round" stroke-linejoin="round"/><path d="M1295.76 317.802l-8.04 22.627-12.05-20.744 20.09-1.883z" fill="#967BFF" stroke="#3F4749" stroke-width="1.5" stroke-linecap="round" stroke-linejoin="round"/><path d="M1290.91 331.487l-7.93.724 4.74 8.218 3.19-8.942z" fill="#3F4749" stroke="#3F4749" stroke-width="1.5" stroke-linecap="round" stroke-linejoin="round"/><path d="M1270.75 157.465l14.98 161.279" stroke="#3F4749" stroke-width="1.5" stroke-linecap="round" stroke-linejoin="round"/><path d="M1260.7 158.407l20.1-1.865-.84-9.084-20.1 1.866.84 9.083z" fill="#C4CBCC" stroke="#3F4749" stroke-width="1.5" stroke-linecap="round" stroke-linejoin="round"/><path d="M1259.85 149.279l20.11-1.866-1.59-17.159-20.11 1.866 1.59 17.159z" fill="#EDEDED" stroke="#3F4749" stroke-width="1.5" stroke-linecap="round" stroke-linejoin="round"/><path d="M1257.47 248.802h87.54v89.78a15.09 15.09 0 01-15.09 15.096h-57.36a15.09 15.09 0 01-15.09-15.096v-89.78z" fill="#000" stroke="#3F4749" stroke-width="1.5" stroke-linecap="round" stroke-linejoin="round"/><path d="M1350.19 228.384h-97.97v20.418h97.97v-20.418z" fill="#00F5C9" stroke="#3F4749" stroke-width="1.5" stroke-linecap="round" stroke-linejoin="round"/><path d="M1268.87 249.236v40.691m63.87 4.417v11.005m0 9.34v11.005" stroke="#3F4749" stroke-width="1.5" stroke-linecap="round" stroke-linejoin="round"/></svg>
